X: 1392
T: Doug Daniels' Schottische
B: australian traditional tunes wiki
M:4/4
L:1/8
R: Schottische
Q: 1/4=100
K:G
V:1 
(3def|"G"g2f2e2d2|"C"(3efe d>e "G"d<B G>A|B2B2"D7"c<A F>A|A2 G2 "G"G2(3def|
"G"g2f2e2d2|"C"(3efe d>e "G"d<B G>A|B2B2"D7"c<A F>A|A2 G2 "G"G2-G>A||
"G"B2-B>cB2B2|"C"c2-c>B c2d2|"D7"f2(3fgf f>e c>d|a2g2f2e2|
"G"B2-B>cB2B2|"C"c2-c>B c2d2|"D7"f2(3fgf f>e c>A|A2G2"G"G2||
% abcbook-tune_id 6342d53a7871e4257c40a700


% abcbook-boost 0
% abcbook-tablature 
% abcbook-transpose 
% abcbook-lastupdated 1665324362772
% abcbook-soundfonts 
% abcbook-repeats 1
% NFF Book 2009

